localPackages/DesignSystem/Sources/DesignSystem/Resources/Assets.xcassets/IconSet/ic-magic-wand.imageset/ic-magic-wand.svg

<svg width="24" height="24" viewBox="0 0 24 24" fill="none" xmlns="http://www.w3.org/2000/svg">
<g id="ic-magic-wand">
<path id="Icon" fill-rule="evenodd" clip-rule="evenodd" d="M10.9354 0.212984L10.5332 1.21859C10.4758 1.36208 10.3621 1.47578 10.2186 1.53317L9.21298 1.93542C8.929 2.04901 8.92901 2.45099 9.21298 2.56458L10.2186 2.96683C10.3621 3.02422 10.4758 3.13792 10.5332 3.28141L10.9354 4.28702C11.049 4.57099 11.451 4.57099 11.5646 4.28702L11.9668 3.28141C12.0242 3.13792 12.1379 3.02422 12.2814 2.96683L13.287 2.56458C13.571 2.45099 13.571 2.04901 13.287 1.93542L12.2814 1.53317C12.1379 1.47578 12.0242 1.36208 11.9668 1.21859L11.5646 0.212983C11.451 -0.0709948 11.049 -0.0709942 10.9354 0.212984ZM17.6893 2.25C18.2751 1.66421 19.2249 1.66421 19.8107 2.25L21.932 4.37132C22.5178 4.95711 22.5178 5.90685 21.932 6.49264L7.08274 21.3419C6.49695 21.9277 5.5472 21.9277 4.96142 21.3419L2.8401 19.2206C2.25431 18.6348 2.25431 17.685 2.8401 17.0992L17.6893 2.25ZM18.75 3.31066L16.0249 6.03573L18.1773 8.12599L20.8713 5.43198L18.75 3.31066ZM3.90076 18.1599L14.9642 7.0965L17.1165 9.18677L6.02208 20.2812L3.90076 18.1599ZM5.16043 6.05042L3.39458 6.80721C3.14261 6.9152 2.85739 6.9152 2.60542 6.80721L0.839574 6.05042C0.340908 5.8367 -0.163295 6.34091 0.050419 6.83957L0.80721 8.60542C0.915197 8.85739 0.915197 9.14261 0.80721 9.39458L0.0504174 11.1604C-0.163296 11.6591 0.340909 12.1633 0.839575 11.9496L2.60542 11.1928C2.85739 11.0848 3.14261 11.0848 3.39458 11.1928L5.16043 11.9496C5.65909 12.1633 6.1633 11.6591 5.94958 11.1604L5.19279 9.39458C5.0848 9.14261 5.0848 8.85739 5.19279 8.60542L5.94958 6.83957C6.1633 6.34091 5.65909 5.8367 5.16043 6.05042ZM17.5553 17.031L18.2257 15.355C18.415 14.8817 19.085 14.8817 19.2743 15.355L19.9447 17.031C20.0404 17.2701 20.2299 17.4596 20.469 17.5553L22.145 18.2257C22.6183 18.415 22.6183 19.085 22.145 19.2743L20.469 19.9447C20.2299 20.0404 20.0404 20.2299 19.9447 20.469L19.2743 22.145C19.085 22.6183 18.415 22.6183 18.2257 22.145L17.5553 20.469C17.4596 20.2299 17.2701 20.0404 17.031 19.9447L15.355 19.2743C14.8817 19.085 14.8817 18.415 15.355 18.2257L17.031 17.5553C17.2701 17.4596 17.4596 17.2701 17.5553 17.031Z" fill="#0F0F0F"/>
</g>
</svg>

<svg xmlns="http://www.w3.org/2000/svg" width="24" height="24" viewBox="0 0 24 24">
  <g class="ic-magic-wand">
    <path fill-rule="evenodd" d="m10.935.213-.402 1.006a.565.565 0 0 1-.314.314l-1.006.402a.339.339 0 0 0 0 .63l1.006.402a.565.565 0 0 1 .314.314l.402 1.006a.339.339 0 0 0 .63 0l.402-1.006a.565.565 0 0 1 .314-.314l1.006-.402a.339.339 0 0 0 0-.63l-1.006-.402a.565.565 0 0 1-.314-.314L11.565.213a.339.339 0 0 0-.63 0ZM17.69 2.25a1.5 1.5 0 0 1 2.122 0l2.121 2.121a1.5 1.5 0 0 1 0 2.122L7.082 21.342a1.5 1.5 0 0 1-2.12 0L2.84 19.22a1.5 1.5 0 0 1 0-2.122L17.69 2.25Zm1.061 1.06-2.725 2.726 2.152 2.09 2.694-2.694-2.121-2.121ZM3.9 18.16 14.965 7.096l2.152 2.09L6.022 20.282 3.901 18.16ZM5.16 6.05l-1.765.757a1.002 1.002 0 0 1-.79 0L.84 6.05a.601.601 0 0 0-.79.79l.757 1.765c.108.252.108.538 0 .79L.05 11.16a.601.601 0 0 0 .79.79l1.765-.757c.252-.108.538-.108.79 0l1.765.757a.601.601 0 0 0 .79-.79l-.757-1.765a1.002 1.002 0 0 1 0-.79L5.95 6.84a.601.601 0 0 0-.79-.79Zm12.395 10.981.67-1.676a.565.565 0 0 1 1.05 0l.67 1.676c.095.24.285.429.524.524l1.676.67c.473.19.473.86 0 1.05l-1.676.67a.942.942 0 0 0-.524.524l-.67 1.676a.565.565 0 0 1-1.05 0l-.67-1.676a.942.942 0 0 0-.524-.524l-1.676-.67a.565.565 0 0 1 0-1.05l1.676-.67a.942.942 0 0 0 .524-.524Z" class="Icon"/>
  </g>
</svg>
